icon_installer/data/icons/scalable/actions/show-bluetooth-none-symbolic.svg

<?xml version="1.0" encoding="UTF-8"?>
<svg height="16px" viewBox="0 0 16 16" width="16px" xmlns="http://www.w3.org/2000/svg">
    <g fill="#222222">
        <path d="m 6 0 v 5.523438 l 2 2 v -4.109376 l 1.585938 1.585938 l -2.054688 2.054688 l 1.414062 1.414062 l 2.761719 -2.761719 c 0.390625 -0.390625 0.390625 -1.023437 0 -1.414062 l -4 -4 c -0.1875 -0.1875 -0.441406 -0.292969 -0.707031 -0.292969 z m 0 8.472656 v 0.113282 l -2.707031 2.707031 c -0.179688 0.179687 -0.292969 0.429687 -0.292969 0.707031 v 1 h 1 c 0.277344 0 0.527344 -0.113281 0.707031 -0.292969 l 1.292969 -1.292969 v 4.585938 h 1 c 0.265625 0 0.519531 -0.105469 0.707031 -0.292969 l 2.761719 -2.761719 l -1.414062 -1.414062 l -1.054688 1.054688 v -2.113282 z m 0 0"/>
        <path d="m 1.53125 0.46875 l -1.0625 1.0625 l 14 14 l 1.0625 -1.0625 z m 0 0"/>
    </g>
</svg>

<svg xmlns="http://www.w3.org/2000/svg" width="16" height="16"><g fill="#222"><path d="M6 0v5.523l2 2V3.414L9.586 5 7.53 7.055l1.414 1.414 2.762-2.762a1 1 0 0 0 0-1.414l-4-4A1 1 0 0 0 7 0zm0 8.473v.113l-2.707 2.707A.998.998 0 0 0 3 12v1h1a.998.998 0 0 0 .707-.293L6 11.414V16h1a1 1 0 0 0 .707-.293l2.762-2.762-1.414-1.414L8 12.586v-2.113zm0 0"/><path d="M1.531.469.47 1.53l14 14 1.062-1.062zm0 0"/></g></svg>
